flaticon/social-media/dropbox.svg

<svg xmlns="http://www.w3.org/2000/svg" width="32" height="32" viewBox="0 0 24 24">
    <path d="M 19.242188 9.449219 L 24 5.960938 L 17.234375 1.894531 L 12.421875 5.101562 L 7.609375 1.894531 L 0 5.917969 L 4.820312 9.632812 L 0.804688 13.328125 L 4.75 15.632812 L 4.75 17.234375 C 4.75 17.355469 4.832031 17.476562 4.953125 17.558594 L 11.671875 21.945312 C 11.703125 21.992188 11.746094 22.03125 11.796875 22.066406 C 11.878906 22.105469 11.917969 22.105469 12 22.105469 C 12.050781 22.105469 12.082031 22.105469 12.121094 22.078125 C 12.152344 22.066406 12.183594 22.046875 12.203125 22.027344 L 19.046875 17.597656 C 19.167969 17.558594 19.25 17.394531 19.25 17.273438 L 19.25 15.359375 L 23.195312 12.84375 Z M 11.984375 13.164062 L 6.253906 9.628906 L 12.394531 6.050781 L 17.761719 9.441406 Z M 15.945312 16.511719 L 12.683594 13.691406 L 18.523438 9.945312 L 21.824219 12.804688 Z M 17.234375 2.859375 L 22.550781 6.039062 L 18.617188 8.910156 L 18.605469 8.898438 L 18.5 8.964844 L 13.148438 5.609375 L 13.167969 5.597656 L 13.148438 5.582031 Z M 7.53125 2.859375 L 11.636719 5.597656 L 5.476562 9.140625 L 1.449219 6.082031 Z M 5.515625 10.105469 L 11.3125 13.664062 L 8.132812 16.632812 L 5.355469 15.019531 C 5.335938 15.007812 5.3125 14.996094 5.289062 14.984375 L 2.175781 13.167969 Z M 5.558594 16.105469 L 7.972656 17.515625 C 8.003906 17.539062 8.035156 17.554688 8.066406 17.566406 L 8.253906 17.679688 L 9.472656 16.535156 L 11.597656 14.578125 L 11.597656 20.980469 L 5.558594 17.035156 Z M 16.105469 17.394531 L 18.441406 15.90625 L 18.441406 17.074219 L 12.402344 20.980469 L 12.402344 14.535156 L 15.625 17.355469 C 15.667969 17.398438 15.71875 17.425781 15.777344 17.441406 L 15.867188 17.515625 L 15.988281 17.4375 C 16.027344 17.429688 16.070312 17.414062 16.105469 17.394531 Z M 16.105469 17.394531"/>
</svg>

<svg xmlns="http://www.w3.org/2000/svg" width="32" height="32" viewBox="0 0 24 24">
    <path d="M19.242 9.45L24 5.96l-6.766-4.065-4.812 3.207-4.813-3.207L0 5.918l4.82 3.715-4.015 3.695 3.945 2.305v1.601c0 .121.082.243.203.325l6.719 4.386a.463.463 0 0 0 .125.121c.082.04.121.04.203.04.05 0 .082 0 .121-.028a.244.244 0 0 0 .082-.05l6.844-4.43c.121-.04.203-.203.203-.325V15.36l3.945-2.515zm-7.258 3.714L6.254 9.63l6.14-3.578 5.368 3.39zm3.961 3.348l-3.261-2.82 5.84-3.747 3.3 2.86zm1.29-13.653l5.316 3.18-3.934 2.871-.012-.012-.105.067-5.352-3.356.02-.011-.02-.016zm-9.704 0l4.106 2.739-6.16 3.543-4.028-3.059zm-2.015 7.246l5.796 3.56-3.18 2.968-2.777-1.613-.066-.036-3.113-1.816zm.043 6l2.414 1.41a.37.37 0 0 0 .093.051l.188.114 1.219-1.145 2.125-1.957v6.402l-6.04-3.945zm10.546 1.29l2.336-1.489v1.168l-6.039 3.906v-6.445l3.223 2.82a.33.33 0 0 0 .152.086l.09.075.121-.078a.423.423 0 0 0 .117-.043zm0 0"/>
</svg>
